!!!Genre:	Dobridyen'
!!!Mode:	Minor
!!!Listening/dance:	listening
!!!One_Mode:	yes
!!!	ABC
!!!Orig_tonic: D
**kern
*thru
*I"P1
*clefG2
*k[b-e-]
*g:
*M3/4
*>A
=1
8.ddL
(16ggJk
8.ddL)
(16ggJk
8.ddL)
(16ggJk
=2
2dd)
4b-
=3
(16ccLL
16ddJ
8ccJ)
4g
(8aL
8b-J)
=4
16ccLL
16ddJ
8ccJ
4b-
(8aL
8gJ)
=5
8.ddL
(16ggJk
8.ddL)
(16ggJk
8.ddL)
(16ggJk
=6
2dd)
4b-
=7
8ccL
8ccJ
4g
8aL
8b-J
=
4.cc
8r
=8||
*>B
4b-
=9
8aL
8b-
8cc
8dd-X
8cc
8b-J
=10
2cc
4b-
=11
8ddnL
8ccJ
4b-
4a
=12
8.gL
(16b-Jk
8.aL)
(16ccJk
8b-)
8r
=13
8aL
8b-
8cc
8dd-X
8cc
8b-J
=14
2cc
4cc
=15
(8.ddnL
16ccJk)
4b-
4a
=16
2g
4r
=17||
*>C
4dd
4gg
8ffL
8ee-J
=18
8ddL
8b-J
4.cc
8g
=19
(32ccLLL
32ddJJ
8.ccJ)
4b-
4a
=20
8.gL
(16b-Jk
8.aL)
(16ccJk
4b-)
=21
4dd
4gg
8ffL
8ee-J
=22
8.ddL
16b-Jk
2cc
=23
(16ccLL
16ddJ
8ccJ)
4b-
4a
=24
2g
4r
==
*-
